X: 1
T:Dingle Regatta
C:Trad
R:Jig
M:6/8
L:1/8
K:G
Z: ABC transcription by Verge Roller
r:48
|: "G" d^cd e2 d | "Bm" BAB "G"d2 B | "D" A2 A AGA | "G" B2 A G2 d |
"G" d^cd e2 d | "Bm" BAB "G" d2 B | "D" A2 A  ABA | "G" G3-G3 :|
|: "G" d2 d def | "Em" g2 g gfg | "Am" a2 a aga | "G" b2 a gfe |
"G" d2 d def | "Em" g2 g gfg | "D" a2 g f2 e | "D" def "G" g3 :|
|: "G" gbg dgd | "G" BdB G2 G | "D" FGA DEF | "G" G2 B d3 |
"G" gbg dgd | "G" BdB G2 G | "D" FGA DEF | "G" G3 G3 :|
